src/next/cmd/sc_grafinvert.svg

<svg height="16" viewBox="0 0 16 16" width="16" xmlns="http://www.w3.org/2000/svg" xmlns:xlink="http://www.w3.org/1999/xlink"><linearGradient id="a"><stop offset="0" stop-color="#2f2f2f"/><stop offset="1" stop-color="#4b4b4b"/></linearGradient><linearGradient id="b"><stop offset="0" stop-color="#c7cdd7"/><stop offset="1" stop-color="#fff"/></linearGradient><linearGradient id="c" gradientUnits="userSpaceOnUse" x1="53.26594843458" x2="68.26817623458" xlink:href="#b" y1="-23.03848606542" y2="132.15697186531"/><linearGradient id="d" gradientUnits="userSpaceOnUse" x1="49.73122698398" x2="17.54089609634" xlink:href="#a" y1="20.94604071884" y2="97.03227867917"/><linearGradient id="e" gradientUnits="userSpaceOnUse" x1="27.74194509661" x2="89.69150235969" xlink:href="#b" y1="58.6376192958" y2="58.6376192958"/><linearGradient id="f" gradientUnits="userSpaceOnUse" x1="38.48037121197" x2="100.00024470465" xlink:href="#a" y1="69.30503160757" y2="69.30503160757"/><linearGradient id="g" gradientUnits="userSpaceOnUse" x1="52.51018647677" x2="68.58153842677" xlink:href="#a" y1="-29.23203464823" y2="137.02332813503"/><g transform="matrix(.125 0 0 .125 0 .032257)"><path d="m3.741947 3.741947h120.25805v120.25805h-120.25805z" fill="url(#g)"/><path d="m7.741946 7.741946h112.25805v112.25805h-112.25805z" fill="url(#c)"/><path d="m120 7.7419472c-4.42492 5.8881088-112.2580528 112.2580528-112.2580528 112.2580528v-112.2580528z" fill="url(#d)" fill-rule="evenodd"/><path d="m89.691504 38.609816c-15.948597 15.979287-35.347681 35.222811-51.211133 50.92348a36.129152 36.129152 0 0 0 25.390727 10.466954 36.129152 36.129152 0 0 0 36.129152-36.129152 36.129152 36.129152 0 0 0 -10.308746-25.261282z" fill="url(#f)"/><path d="m63.871098 27.741946a36.129152 36.129152 0 0 0 -36.129152 36.129152 36.129152 36.129152 0 0 0 10.738425 25.662198c15.863452-15.700669 35.262536-34.944193 51.211133-50.92348a36.129152 36.129152 0 0 0 -25.820406-10.86787z" fill="url(#e)"/></g></svg>

<?xml version="1.0" encoding="UTF-8" standalone="no"?>
<!-- Created with Inkscape (http://www.inkscape.org/) -->

<svg
   xmlns:dc="http://purl.org/dc/elements/1.1/"
   xmlns:cc="http://creativecommons.org/ns#"
   xmlns:rdf="http://www.w3.org/1999/02/22-rdf-syntax-ns#"
   xmlns:svg="http://www.w3.org/2000/svg"
   xmlns="http://www.w3.org/2000/svg"
   xmlns:xlink="http://www.w3.org/1999/xlink"
   xmlns:sodipodi="http://sodipodi.sourceforge.net/DTD/sodipodi-0.dtd"
   xmlns:inkscape="http://www.inkscape.org/namespaces/inkscape"
   id="svg2"
   version="1.1"
   inkscape:version="0.92.4 (unknown)"
   width="16"
   height="16"
   viewBox="0 0 16 16"
   sodipodi:docname="sc_grafinvert.svg"
   inkscape:export-filename="/home/rizmut/Dokumen/Rizmut/Github/libreoffice-style-karasa-jaga/build/next/cmd/sc_grafinvert.png"
   inkscape:export-xdpi="96"
   inkscape:export-ydpi="96">
  <metadata
     id="metadata8">
    <rdf:RDF>
      <cc:Work
         rdf:about="">
        <dc:format>image/svg+xml</dc:format>
        <dc:type
           rdf:resource="http://purl.org/dc/dcmitype/StillImage" />
        <dc:title></dc:title>
      </cc:Work>
    </rdf:RDF>
  </metadata>
  <defs
     id="defs6">
    <linearGradient
       inkscape:collect="always"
       id="linearGradient1010">
      <stop
         style="stop-color:#2f2f2f;stop-opacity:1;"
         offset="0"
         id="stop1006" />
      <stop
         style="stop-color:#4b4b4b;stop-opacity:1"
         offset="1"
         id="stop1008" />
    </linearGradient>
    <linearGradient
       id="linearGradient3895">
      <stop
         style="stop-color:#382a23;stop-opacity:1;"
         offset="0"
         id="stop3897" />
      <stop
         style="stop-color:#753919;stop-opacity:0;"
         offset="1"
         id="stop3899" />
    </linearGradient>
    <radialGradient
       id="XMLID_4_"
       cx="48"
       cy="-0.2148"
       r="55.147999"
       gradientTransform="matrix(0.9792,0,0,0.9725,133.0002,20.8762)"
       gradientUnits="userSpaceOnUse">
      <stop
         offset="0"
         style="stop-color:#fff718;stop-opacity:1;"
         id="stop3082" />
      <stop
         offset="1"
         style="stop-color:#e77100;stop-opacity:1;"
         id="stop3090" />
    </radialGradient>
    <linearGradient
       id="linearGradient3344">
      <stop
         id="stop3346"
         offset="0"
         style="stop-color:#fdff63;stop-opacity:1;" />
      <stop
         id="stop3348"
         offset="1"
         style="stop-color:#ffffff;stop-opacity:0;" />
    </linearGradient>
    <linearGradient
       y2="0"
       x2="28"
       y1="57.5"
       x1="28"
       gradientUnits="userSpaceOnUse"
       id="XMLID_2_">
      <stop
         id="stop12"
         style="stop-color:#FFEA00"
         offset="0" />
      <stop
         id="stop14"
         style="stop-color:#FFCC00"
         offset="1" />
    </linearGradient>
    <linearGradient
       id="linearGradient3919"
       gradientUnits="userSpaceOnUse"
       x1="28"
       y1="57.5"
       x2="28"
       y2="0">
      <stop
         offset="0"
         style="stop-color:#FFEA00"
         id="stop3921" />
      <stop
         offset="1"
         style="stop-color:#dea200;stop-opacity:1"
         id="stop3923" />
    </linearGradient>
    <radialGradient
       id="radialGradient15384"
       cx="48"
       cy="-0.2148"
       r="55.147999"
       gradientTransform="matrix(0.9792,0,0,0.9725,133.0002,20.8762)"
       gradientUnits="userSpaceOnUse">
      <stop
         offset="0"
         style="stop-color:#fff718;stop-opacity:1;"
         id="stop15386" />
      <stop
         offset="1"
         style="stop-color:#e77100;stop-opacity:1;"
         id="stop15388" />
    </radialGradient>
    <linearGradient
       id="linearGradient18668"
       gradientUnits="userSpaceOnUse"
       x1="28"
       y1="57.5"
       x2="28"
       y2="0">
      <stop
         offset="0"
         style="stop-color:#fffccf;stop-opacity:1;"
         id="stop18670" />
      <stop
         offset="1"
         style="stop-color:white;stop-opacity:0;"
         id="stop18672" />
    </linearGradient>
    <linearGradient
       id="linearGradient3825">
      <stop
         style="stop-color:#ffffff;stop-opacity:0;"
         offset="0"
         id="stop3827" />
      <stop
         id="stop3833"
         offset="0.5"
         style="stop-color:#ffffff;stop-opacity:0.18705036;" />
      <stop
         style="stop-color:#ffffff;stop-opacity:1;"
         offset="1"
         id="stop3829" />
    </linearGradient>
    <linearGradient
       id="linearGradient3711"
       gradientUnits="userSpaceOnUse"
       x1="-84.002403"
       y1="-383.9971"
       x2="-23.516129"
       y2="-383.9975"
       gradientTransform="rotate(90,-90.0007,50.0022)">
      <stop
         offset="0"
         style="stop-color:white;stop-opacity:1;"
         id="stop3713" />
      <stop
         offset="1"
         style="stop-color:white;stop-opacity:0"
         id="stop3715" />
    </linearGradient>
    <linearGradient
       id="XMLID_9_"
       gradientUnits="userSpaceOnUse"
       x1="94.343803"
       y1="102.3447"
       x2="86.535599"
       y2="94.536598">
      <stop
         offset="0"
         style="stop-color:#FFFFFF"
         id="stop62" />
      <stop
         offset="1"
         style="stop-color:#555753"
         id="stop64" />
    </linearGradient>
    <linearGradient
       y2="95.292999"
       x2="87.292999"
       y1="103"
       x1="95"
       gradientUnits="userSpaceOnUse"
       id="linearGradient4175">
      <stop
         id="stop4177"
         style="stop-color:#000000;stop-opacity:1"
         offset="0" />
      <stop
         id="stop4179"
         style="stop-color:#393B38"
         offset="1" />
    </linearGradient>
    <linearGradient
       id="XMLID_12_"
       gradientUnits="userSpaceOnUse"
       x1="96"
       y1="104"
       x2="88.000198"
       y2="96.000198">
      <stop
         offset="0"
         style="stop-color:#888A85"
         id="stop83" />
      <stop
         offset="0.0072"
         style="stop-color:#8C8E89"
         id="stop85" />
      <stop
         offset="0.0673"
         style="stop-color:#ABACA9"
         id="stop87" />
      <stop
         offset="0.1347"
         style="stop-color:#C5C6C4"
         id="stop89" />
      <stop
         offset="0.2115"
         style="stop-color:#DBDBDA"
         id="stop91" />
      <stop
         offset="0.3012"
         style="stop-color:#EBEBEB"
         id="stop93" />
      <stop
         offset="0.4122"
         style="stop-color:#F7F7F6"
         id="stop95" />
      <stop
         offset="0.5679"
         style="stop-color:#FDFDFD"
         id="stop97" />
      <stop
         offset="1"
         style="stop-color:#FFFFFF"
         id="stop99" />
    </linearGradient>
    <radialGradient
       id="XMLID_8_"
       cx="102"
       cy="112.3047"
       r="139.55859"
       gradientUnits="userSpaceOnUse">
      <stop
         offset="0"
         style="stop-color:#535557"
         id="stop37" />
      <stop
         offset="0.11366145"
         style="stop-color:#898A8C"
         id="stop41" />
      <stop
         offset="0.20296688"
         style="stop-color:#ECECEC"
         id="stop47" />
      <stop
         offset="0.2363"
         style="stop-color:#FAFAFA"
         id="stop49" />
      <stop
         offset="0.2722"
         style="stop-color:#FFFFFF"
         id="stop51" />
      <stop
         offset="0.5313"
         style="stop-color:#FAFAFA"
         id="stop53" />
      <stop
         offset="0.8449"
         style="stop-color:#EBECEC"
         id="stop55" />
      <stop
         offset="1"
         style="stop-color:#E1E2E3"
         id="stop57" />
    </radialGradient>
    <radialGradient
       id="XMLID_7_"
       cx="102"
       cy="112.3047"
       r="139.5585"
       gradientUnits="userSpaceOnUse">
      <stop
         offset="0"
         style="stop-color:#00537D"
         id="stop16" />
      <stop
         offset="0.0151"
         style="stop-color:#186389"
         id="stop18" />
      <stop
         offset="0.0558"
         style="stop-color:#558CA8"
         id="stop20" />
      <stop
         offset="0.0964"
         style="stop-color:#89AFC3"
         id="stop22" />
      <stop
         offset="0.1357"
         style="stop-color:#B3CCD8"
         id="stop24" />
      <stop
         offset="0.1737"
         style="stop-color:#D4E2E9"
         id="stop26" />
      <stop
         offset="0.2099"
         style="stop-color:#ECF2F5"
         id="stop28" />
      <stop
         offset="0.2435"
         style="stop-color:#FAFCFD"
         id="stop30" />
      <stop
         offset="0.2722"
         style="stop-color:#FFFFFF"
         id="stop32" />
    </radialGradient>
    <linearGradient
       id="linearGradient3323">
      <stop
         style="stop-color:#c7cdd7;stop-opacity:1;"
         offset="0"
         id="stop3325" />
      <stop
         style="stop-color:#ffffff;stop-opacity:1;"
         offset="1"
         id="stop3327" />
    </linearGradient>
    <linearGradient
       inkscape:collect="always"
       xlink:href="#linearGradient3323"
       id="linearGradient1000"
       x1="53.620972"
       y1="-20.129028"
       x2="68.120972"
       y2="129.87097"
       gradientUnits="userSpaceOnUse"
       gradientTransform="matrix(1.0346364,0,0,1.0346364,-2.2122613,-2.2122613)" />
    <linearGradient
       inkscape:collect="always"
       xlink:href="#linearGradient1010"
       id="linearGradient1012"
       x1="50.204582"
       y1="22.383034"
       x2="19.091883"
       y2="95.922142"
       gradientUnits="userSpaceOnUse"
       gradientTransform="matrix(1.0346364,0,0,1.0346364,-2.2122613,-2.2122613)" />
    <linearGradient
       inkscape:collect="always"
       xlink:href="#linearGradient3323"
       id="linearGradient1029"
       x1="24.621094"
       y1="58.185547"
       x2="91.921875"
       y2="58.185547"
       gradientUnits="userSpaceOnUse"
       gradientTransform="matrix(0.92048794,0,0,0.92048794,5.0785253,5.0785253)" />
    <linearGradient
       inkscape:collect="always"
       xlink:href="#linearGradient1010"
       id="linearGradient1038"
       x1="36.287109"
       y1="69.774414"
       x2="103.12109"
       y2="69.774414"
       gradientUnits="userSpaceOnUse"
       gradientTransform="matrix(0.92048794,0,0,0.92048794,5.0785253,5.0785253)" />
    <linearGradient
       inkscape:collect="always"
       xlink:href="#linearGradient1010"
       id="linearGradient1042"
       gradientUnits="userSpaceOnUse"
       x1="53.620972"
       y1="-20.129028"
       x2="68.120972"
       y2="129.87097"
       gradientTransform="matrix(1.1083691,0,0,1.1083691,-6.9216415,-6.9216415)" />
  </defs>
  <sodipodi:namedview
     pagecolor="#ffffff"
     bordercolor="#666666"
     borderopacity="1"
     objecttolerance="10"
     gridtolerance="10"
     guidetolerance="10"
     inkscape:pageopacity="0"
     inkscape:pageshadow="2"
     inkscape:window-width="1366"
     inkscape:window-height="691"
     id="namedview4"
     showgrid="true"
     inkscape:snap-page="false"
     inkscape:zoom="16"
     inkscape:cx="10.544077"
     inkscape:cy="9.9071197"
     inkscape:window-x="0"
     inkscape:window-y="26"
     inkscape:window-maximized="1"
     inkscape:current-layer="g903"
     inkscape:snap-global="true">
    <inkscape:grid
       type="xygrid"
       id="grid900"
       spacingx="0.49999999"
       spacingy="0.49999999" />
  </sodipodi:namedview>
  <g
     id="g903"
     transform="matrix(0.125,0,0,0.125,0,0.03225676)">
    <rect
       style="opacity:1;fill:url(#linearGradient1042);fill-opacity:1;stroke:none;stroke-width:1.94446468;stroke-linecap:round;stroke-linejoin:bevel;stroke-miterlimit:4;stroke-dasharray:none;stroke-dashoffset:0;stroke-opacity:1"
       id="rect1040"
       width="120.25805"
       height="120.25805"
       x="3.7419465"
       y="3.7419465"
       rx="0" />
    <rect
       rx="0"
       y="7.7419462"
       x="7.7419462"
       height="112.25805"
       width="112.25805"
       id="rect981"
       style="opacity:1;fill:url(#linearGradient1000);fill-opacity:1;stroke:none;stroke-width:1.81511188;stroke-linecap:round;stroke-linejoin:bevel;stroke-miterlimit:4;stroke-dasharray:none;stroke-dashoffset:0;stroke-opacity:1" />
    <path
       inkscape:connector-curvature="0"
       id="path1004"
       d="M 120,7.7419472 C 115.57508,13.630056 7.7419472,120 7.7419472,120 V 7.7419472 Z"
       style="fill:url(#linearGradient1012);fill-opacity:1;fill-rule:evenodd;stroke:none;stroke-width:1.03463638px;stroke-linecap:butt;stroke-linejoin:miter;stroke-opacity:1" />
    <path
       inkscape:connector-curvature="0"
       id="path1014"
       d="M 89.691504,38.609816 C 73.742907,54.589103 54.343823,73.832627 38.480371,89.533296 A 36.129152,36.129152 0 0 0 63.871098,100.00025 36.129152,36.129152 0 0 0 100.00025,63.871098 36.129152,36.129152 0 0 0 89.691504,38.609816 Z"
       style="opacity:1;fill:url(#linearGradient1038);fill-opacity:1;stroke:none;stroke-width:1.83598149;stroke-linecap:round;stroke-linejoin:bevel;stroke-miterlimit:4;stroke-dasharray:none;stroke-dashoffset:0;stroke-opacity:1" />
    <path
       inkscape:connector-curvature="0"
       id="circle1018"
       d="M 63.871098,27.741946 A 36.129152,36.129152 0 0 0 27.741946,63.871098 36.129152,36.129152 0 0 0 38.480371,89.533296 C 54.343823,73.832627 73.742907,54.589103 89.691504,38.609816 A 36.129152,36.129152 0 0 0 63.871098,27.741946 Z"
       style="opacity:1;fill:url(#linearGradient1029);fill-opacity:1;stroke:none;stroke-width:1.83598149;stroke-linecap:round;stroke-linejoin:bevel;stroke-miterlimit:4;stroke-dasharray:none;stroke-dashoffset:0;stroke-opacity:1" />
  </g>
</svg>
